X:1
T:Title
%%score { ( 1 3 5 ) | ( 2 4 6 ) }
L:1/8
M:4/4
K:G
V:1 treble nm="Grand Piano"
V:3 treble 
V:5 treble 
V:2 treble 
V:4 treble 
V:6 treble 
V:1
 z4 z2[Q:1/4=100] G>A | B>B B>B A<G [G,DG]>[G,D] | [G,DF]2 [G,CE]2 [G,B,D]2 D>G | %3
 G>F F>G [FA]<[FA] D>D |[M:9/8] c2 B- B A2- AB>c |[M:4/4] d>d d>c c<B [DB]>[DA] | %6
[M:3/4] [EG]2 [CE]2 [Ec]2 |[M:1/4] [CE]>[CE] |[M:4/4] [B,D]>[B,D] [DG]>A B<d [DGd]>[EGc] | %9
[M:7/8] [DGB]2 [CFA]2 [B,DG]3 |[M:11/32] d/4-d/4-d/4-d/4-d/4-d/4-d/-<d/ z/4 | %11
[M:4/4] (5:4:4Bd3/2A[Ac]3/2 z4 | z4 (5:4:5D2- D/ G/-G3/2B/ | z4 z/ [Ac]3/2- [Ac]/4 z/4 z/ z | %14
[M:35/32] (3:2:8[DGB]2- [DGB]3/16 z2 z3/16 z4 z3/8 [Fd]4- [Fd]3/8 | %15
[M:4/4] BdA[Ac] [GB][DG] [DG]>[DF] |[M:3/4] [DF]2 [CE]2 [Ec]2 |[M:1/4] [CE]>[CE] | %18
[M:4/4] [B,D]>[B,D] [DG]>A B<d [DGd]>[EGc] |[M:15/8] [DGB]2 [CFA]-[CFA] [B,DG]2- [B,DG] z2 z6 |] %20
V:2
 z4 z2 [G,B,D]>[G,CD] | [G,DG]>[G,DG] [G,DG]>[G,DG][K:bass] [G,CD]<[G,B,D] B,,>B,, | %2
 C,2 C,2 G,,2 [G,B,]>[G,B,D] | [D,B,D]>[D,A,D] [D,A,D]>[D,B,] [D,C]<[D,C] [D,F,]>[D,F,] | %4
[M:9/8] [F,A,D]2 [G,D]- [G,D] [D,F,D]2- [D,F,D][K:treble][G,D]>[G,A,D] | %5
[M:4/4] [G,B,G]>[G,B,G] [G,B,G]>[G,EG] [G,EG]<[G,DG][K:bass] [B,,G,]>[B,,G,] | %6
[M:3/4] [C,G,]2 [C,G,]2 [C,G,]2 |[M:1/4] [C,G,]>[C,G,] | %8
[M:4/4] [G,,G,]>[G,,G,] [B,,G,]>[D,F,D][K:treble] [G,D]<[G,B,G][K:bass] B,,>C, | %9
[M:7/8] D,2 D,2 G,,3 |[M:11/32][K:treble] [G,G]/4-[G,G]/4-[G,G]/4-[G,G]/4-[G,G]/-<[G,G]/[G,EG]3/4 | %11
[M:4/4] (5:4:4[G,DG][G,B,G]3/2[K:bass][F,D][F,D]3/2 z4 | %12
 z4 (5:4:5[G,B,]2- [G,B,]/[K:treble] [G,B,D]/-[G,B,D]3/2[G,DG]/ | %13
 (5:4:5[D,D]2 [D,D]/ [D,D]/-[D,D]3/2[D,D]/ [D,D]3/4 z/4 z (3:2:2[D,D]2 [D,D] | %14
[M:35/32] (3:2:8G,2- G,3/16 z2 z3/16 z4 z3/8 [D,A,]4- [D,A,]3/8 | %15
[M:4/4][K:treble] [G,DG][G,B,G][K:bass][F,D][F,D] [G,D][G,B,] [B,,G,]>[B,,G,] | %16
[M:3/4] [C,G,]2 [C,G,]2 [C,G,]2 |[M:1/4] [C,G,]>[C,G,] | %18
[M:4/4] [G,,G,]>[G,,G,] [B,,G,]>[D,F,D][K:treble] [G,D]<[G,B,G][K:bass] B,,>C, | %19
[M:15/8] D,2 D,-D, G,,2- G,, z2 z6 |] %20
V:3
 x8 | x8 | x8 | x8 |[M:9/8] x9 |[M:4/4] x8 |[M:3/4] x6 |[M:1/4] x2 |[M:4/4] x8 |[M:7/8] x7 | %10
[M:11/32] z/4 z/4 z/4 z/4 z/4 z/4 z/ c3/4 |[M:4/4] z4 (5:4:5[GB][DG]3/2 [DG]/-[DG]3/2[DF]/ | %12
 (3:2:2E3 G3 z4 | (5:4:5[GB]2 [FA]/ [FA]/-[FA]3/2[GB]/ [Ac]3/4 z/4 z (3:2:2[GB]2 [FA] | %14
[M:35/32] z2 [Gd]2- [D-F-GA-d]/4 [DFA]2 z3/2 z/4 [Fc]3/4 |[M:4/4] x8 |[M:3/4] x6 |[M:1/4] x2 | %18
[M:4/4] x8 |[M:15/8] x15 |] %20
V:4
 x8 | x4[K:bass] x4 | x8 | x8 |[M:9/8] x7[K:treble] x2 |[M:4/4] x6[K:bass] x2 |[M:3/4] x6 | %7
[M:1/4] x2 |[M:4/4] x4[K:treble] x2[K:bass] x2 |[M:7/8] x7 | %10
[M:11/32][K:treble] B,/4-B,/4-B,/4-B,/4-B,/4-B,/4-B,/-<B,/ z/4 | %11
[M:4/4] z4[K:bass] (5:4:5[G,D][G,B,]3/2 [B,,G,]/-[B,,G,]3/2[B,,G,]/ | %12
 (3:2:2[C,G,C]3 [E,G,C]3 z4[K:treble] | z4 z/ [D,D]3/2- [D,D]/4 z/4 z/ z | %14
[M:35/32] z4 D,2- D,/4 z3/2 z/4 [D,D]3/4 |[M:4/4][K:treble] x2[K:bass] x6 |[M:3/4] x6 |[M:1/4] x2 | %18
[M:4/4] x4[K:treble] x2[K:bass] x2 |[M:15/8] x15 |] %20
V:5
 x8 | x8 | x8 | x8 |[M:9/8] x9 |[M:4/4] x8 |[M:3/4] x6 |[M:1/4] x2 |[M:4/4] x8 |[M:7/8] x7 | %10
[M:11/32] x11/4 |[M:4/4] x8 | x8 | x8 |[M:35/32] z2 D2 z4 z3/4 |[M:4/4] x8 |[M:3/4] x6 | %17
[M:1/4] x2 |[M:4/4] x8 |[M:15/8] x15 |] %20
V:6
 x8 | x4[K:bass] x4 | x8 | x8 |[M:9/8] x7[K:treble] x2 |[M:4/4] x6[K:bass] x2 |[M:3/4] x6 | %7
[M:1/4] x2 |[M:4/4] x4[K:treble] x2[K:bass] x2 |[M:7/8] x7 |[M:11/32][K:treble] x11/4 | %11
[M:4/4] x2[K:bass] x6 | x6[K:treble] x2 | x8 |[M:35/32] z2 B,,2- B,,/4 z4 z/ | %15
[M:4/4][K:treble] x2[K:bass] x6 |[M:3/4] x6 |[M:1/4] x2 |[M:4/4] x4[K:treble] x2[K:bass] x2 | %19
[M:15/8] x15 |] %20

